symbolic/22x22/apps/ADLplug.svg

<svg width="22" height="22" version="1.1" xmlns="http://www.w3.org/2000/svg">
 <g transform="translate(-1,-1)">
  <rect x="2" y="2" width="20" height="20" rx="1" ry="1" style="fill:#3a6688"/>
  <path d="m3 2c-0.554 0-1 0.446-1 1v0.5c0-0.554 0.446-1 1-1h18c0.554 0 1 0.446 1 1v-0.5c0-0.554-0.446-1-1-1z" style="fill:#ffffff;opacity:.2"/>
  <path d="m3 22.5c-0.554 0-1-0.446-1-1v-0.5c0 0.554 0.446 1 1 1h18c0.554 0 1-0.446 1-1v0.5c0 0.554-0.446 1-1 1z" style="opacity:.2"/>
  <path d="M 16.492188,8.4941406 A 0.50005,0.50005 0 0 0 16,9 v 8 a 0.50005,0.50005 0 0 0 0.5,0.5 h 4 a 0.50005,0.50005 0 1 0 0,-1 H 17 V 9 A 0.50005,0.50005 0 0 0 16.492188,8.4941406 Z M 6.5,8.5 C 5.333334,8.5 4.6123624,9.1580872 4.3027344,9.7773438 3.9931054,10.3966 4,11 4,11 v 2.908203 a 0.50005,0.50005 0 0 0 0,0.173828 V 17 a 0.50005,0.50005 0 1 0 1,0 V 14.5 H 8 V 17 a 0.50005,0.50005 0 1 0 1,0 V 14.076172 A 0.50005,0.50005 0 0 0 9,13.923828 V 11 C 9,11 9.0068996,10.3966 8.6972656,9.7773438 8.3876366,9.1580871 7.666667,8.5 6.5,8.5 Z m 3.96875,0.095703 A 0.50005,0.50005 0 0 0 10,9.09375 v 8 a 0.50005,0.50005 0 0 0 0.46875,0.5 c 0,0 1.122378,0.07704 2.259766,-0.453125 C 13.865517,16.610636 15.023365,15.373805 15,13.091797 14.999215,10.811423 13.842009,9.5790183 12.710938,9.0488281 11.579481,8.5184577 10.46875,8.5957031 10.46875,8.595703 Z M 6.5,9.5 c 0.833334,0 1.1123624,0.3438667 1.3027344,0.724609 C 7.9931054,10.605353 8,11 8,11 v 2.5 H 5 V 11 C 5,11 5.0069,10.605353 5.1972656,10.224609 5.3876366,9.8438667 5.666668,9.5 6.5,9.5 Z M 11,9.6894531 c 0.300144,0.00773 0.650412,-0.03478 1.287109,0.2636719 C 13.155651,10.360254 14,11.125614 14,13.09375 a 0.50005,0.50005 0 0 0 0,0.0059 c 0.02082,1.966503 -0.821452,2.727434 -1.695312,3.134766 C 11.661822,16.534032 11.302693,16.492493 11,16.5 Z" style="opacity:.2"/>
  <path d="M 16.492188,7.9941406 A 0.50005,0.50005 0 0 0 16,8.5 v 8 a 0.50005,0.50005 0 0 0 0.5,0.5 h 4 a 0.50005,0.50005 0 1 0 0,-1 H 17 V 8.5 A 0.50005,0.50005 0 0 0 16.492188,7.9941406 Z M 6.5,8 C 5.333334,8 4.6123624,8.6580872 4.3027344,9.2773438 3.9931054,9.8966004 4,10.5 4,10.5 v 2.908203 a 0.50005,0.50005 0 0 0 0,0.173828 V 16.5 a 0.50005,0.50005 0 1 0 1,0 V 14 h 3 v 2.5 a 0.50005,0.50005 0 1 0 1,0 V 13.576172 A 0.50005,0.50005 0 0 0 9,13.423828 V 10.5 C 9,10.5 9.0069,9.8966006 8.6972656,9.2773438 8.3876366,8.6580871 7.666667,8 6.5,8 Z m 3.96875,0.095703 A 0.50005,0.50005 0 0 0 10,8.59375 v 8 a 0.50005,0.50005 0 0 0 0.46875,0.5 c 0,0 1.122378,0.07704 2.259766,-0.453125 C 13.865517,16.110636 15.023365,14.873805 15,12.591797 14.999215,10.311423 13.842009,9.0790183 12.710938,8.5488281 11.579481,8.0184577 10.46875,8.0957031 10.46875,8.095703 Z M 6.5,9 C 7.333334,9 7.6123624,9.3438666 7.8027344,9.7246094 7.9931054,10.105352 8,10.5 8,10.5 V 13 H 5 V 10.5 C 5,10.5 5.0069,10.105352 5.1972656,9.7246094 5.3876366,9.3438666 5.666668,9 6.5,9 Z M 11,9.1894531 c 0.300144,0.00773 0.650412,-0.03478 1.287109,0.2636719 C 13.155651,9.8602543 14,10.625614 14,12.59375 a 0.50005,0.50005 0 0 0 0,0.0059 c 0.02082,1.966503 -0.821452,2.727434 -1.695312,3.134766 C 11.661822,16.034032 11.302693,15.992493 11,16 Z" style="fill:#a1eae9"/>
 </g>
</svg>

<svg width="22" height="22" xmlns="http://www.w3.org/2000/svg"><g transform="translate(-1 -1)"><rect x="2" y="2" width="20" height="20" rx="1" ry="1" style="fill:#3a6688"/><path d="M3 2c-.554 0-1 .446-1 1v.5c0-.554.446-1 1-1h18c.554 0 1 .446 1 1V3c0-.554-.446-1-1-1z" style="fill:#fff;opacity:.2"/><path d="M3 22.5c-.554 0-1-.446-1-1V21c0 .554.446 1 1 1h18c.554 0 1-.446 1-1v.5c0 .554-.446 1-1 1zM16.492 8.494A.5.5 0 0 0 16 9v8a.5.5 0 0 0 .5.5h4a.5.5 0 1 0 0-1H17V9a.5.5 0 0 0-.508-.506zM6.5 8.5c-1.167 0-1.888.658-2.197 1.277C3.993 10.397 4 11 4 11v2.908a.5.5 0 0 0 0 .174V17a.5.5 0 1 0 1 0v-2.5h3V17a.5.5 0 1 0 1 0v-2.924a.5.5 0 0 0 0-.152V11s.007-.603-.303-1.223C8.387 9.158 7.667 8.5 6.5 8.5zm3.969.096a.5.5 0 0 0-.469.498v8a.5.5 0 0 0 .469.5s1.122.077 2.26-.453c1.137-.53 2.294-1.767 2.271-4.05 0-2.28-1.158-3.512-2.29-4.042-1.13-.53-2.241-.453-2.241-.453zM6.5 9.5c.833 0 1.112.344 1.303.725.19.38.197.775.197.775v2.5H5V11s.007-.395.197-.775c.19-.381.47-.725 1.303-.725zm4.5.19c.3.007.65-.035 1.287.263.869.407 1.713 1.173 1.713 3.14a.5.5 0 0 0 0 .007c.02 1.966-.821 2.727-1.695 3.134-.643.3-1.002.258-1.305.266z" style="opacity:.2"/><path d="M16.492 7.994A.5.5 0 0 0 16 8.5v8a.5.5 0 0 0 .5.5h4a.5.5 0 1 0 0-1H17V8.5a.5.5 0 0 0-.508-.506zM6.5 8c-1.167 0-1.888.658-2.197 1.277C3.993 9.897 4 10.5 4 10.5v2.908a.5.5 0 0 0 0 .174V16.5a.5.5 0 1 0 1 0V14h3v2.5a.5.5 0 1 0 1 0v-2.924a.5.5 0 0 0 0-.152V10.5s.007-.603-.303-1.223C8.387 8.658 7.667 8 6.5 8zm3.969.096a.5.5 0 0 0-.469.498v8a.5.5 0 0 0 .469.5s1.122.077 2.26-.453c1.137-.53 2.294-1.767 2.271-4.05 0-2.28-1.158-3.512-2.29-4.042-1.13-.53-2.241-.453-2.241-.453zM6.5 9c.833 0 1.112.344 1.303.725.19.38.197.775.197.775V13H5v-2.5s.007-.395.197-.775C5.387 9.344 5.667 9 6.5 9zm4.5.19c.3.007.65-.035 1.287.263.869.407 1.713 1.173 1.713 3.14a.5.5 0 0 0 0 .007c.02 1.966-.821 2.727-1.695 3.134-.643.3-1.002.258-1.305.266z" style="fill:#a1eae9"/></g></svg>
